X: 12548
T: Farewell To Lisheen
R: jig
M: 6/8
K: Dmajor
|:E|DEF A3|BAF AFE|DEF A3|BAF ~E3|
DEF A3|BAF AFE|DEF AFD|EFE D2:|
|:c|dcB cBA|BdB AFE|d2B cBA|BAF ~E3|
dcB cBA|BdB AFE|DEF AFD|EFE D2:|

